local/share/icons/dracula-icons-main/24/devices/computer-laptop.svg

<?xml version="1.0" encoding="UTF-8"?>
<svg xmlns="http://www.w3.org/2000/svg" xmlns:xlink="http://www.w3.org/1999/xlink" width="24" height="24" viewBox="0 0 24 24">
<path fill-rule="nonzero" fill="rgb(44.705882%, 44.705882%, 44.705882%)" fill-opacity="1" d="M 6 5 C 5 5 5 6 5 6 L 5 16.003906 C 5 16 6 17.003906 6 17.003906 L 5 17.003906 C 5 17.003906 4 17.003906 4 18.003906 L 4 19 L 20 19 L 20 18.003906 C 20 17.003906 19.019531 17.003906 19.019531 17.003906 L 18 17.003906 L 19 16 L 19 6 C 19 6 19 5 18 5 Z M 7 7 L 17 7 L 17 14.976562 L 7 15.003906 Z M 7 7 "/>
</svg>

<svg width="24" height="24" version="1.1" viewBox="0 0 24 24" xmlns="http://www.w3.org/2000/svg">
 <defs>
  <style id="current-color-scheme" type="text/css">.ColorScheme-Text { color:#727272; } .ColorScheme-Highlight { color:#5294e2; }</style>
 </defs>
 <path class="ColorScheme-Text" d="m6 4.9999c-1 0-1 1.0003-1 1.0003v10.003c0-0.0039 1 1.0003 1 1.0003h-1s-1 0-1 1.0003v0.99637h16v-0.99637c0-1.0003-0.97852-1.0003-0.97852-1.0003h-1.0217l1-1.0042v-9.9989s0-1.0003-1-1.0003zm1 2.0006h10v7.9768l-10 0.0254z" fill="currentColor" stroke-width="1.0001"/>
</svg>
